assets/Man in manual wheelchair/Medium-Light/Flat/man_in_manual_wheelchair_flat_medium-light.svg

<svg width="32" height="32" viewBox="0 0 32 32" fill="none" xmlns="http://www.w3.org/2000/svg">
<path d="M8.33643 22.3067L9.48643 16.7167C9.69643 15.6667 10.2564 15.2867 10.9864 15.2367L15.3064 14.8667L19.6664 14.6667C19.6664 14.6667 20.4464 17.6467 19.2964 17.6467L12.1964 17.7867C12.0164 17.7867 11.8564 17.8967 11.7964 18.0567L9.40643 23.7467L8.33643 22.3067Z" fill="#9B9B9B"/>
<path d="M9.44652 23.6668L8.95652 24.7068C8.90652 24.8168 8.77652 24.8568 8.67652 24.8068L5.17652 23.1768C4.90652 23.0468 4.95652 22.6468 5.25652 22.5968L8.34652 22.3068L9.44652 23.6668Z" fill="#533566"/>
<path d="M21.3168 10.9567C20.9633 10.9567 20.6768 11.2432 20.6768 11.5967C20.6768 11.9501 20.9633 12.2367 21.3168 12.2367H24.3268C24.6802 12.2367 24.9668 11.9501 24.9668 11.5967C24.9668 11.2432 24.6802 10.9567 24.3268 10.9567H21.3168Z" fill="#212121"/>
<path d="M11.6567 17.6667H19.6167V20.1367H11.1167V18.2067C11.1167 17.9067 11.3567 17.6667 11.6567 17.6667Z" fill="#212121"/>
<path d="M11.64 22.4366C11.9935 22.4366 12.28 22.7232 12.28 23.0766V28.3166C12.28 28.6701 11.9935 28.9566 11.64 28.9566C11.2865 28.9566 11 28.6701 11 28.3166V23.0766C11 22.7232 11.2865 22.4366 11.64 22.4366Z" fill="#9B9B9B"/>
<path d="M21.9404 11.7778C22.0404 11.4388 21.8467 11.0829 21.5077 10.9829C21.1687 10.8829 20.8128 11.0766 20.7127 11.4156L19.4793 15.5967H14.92C13.5865 15.5967 12.5 16.6832 12.5 18.0167V19.0566H11.64C11.2865 19.0566 11 19.3432 11 19.6966V19.9383L8.4861 25.3574C8.33735 25.678 8.4767 26.0585 8.79734 26.2073C9.11798 26.356 9.49849 26.2167 9.64724 25.896L11 22.9799V23.7866C11 24.1401 11.2865 24.4266 11.64 24.4266H11.65C12.4503 24.4266 13.1062 25.0763 13.1201 25.8679C13.1262 26.2169 13.4109 26.4966 13.76 26.4966H20.01C20.3635 26.4966 20.65 26.2101 20.65 25.8566V20.1311C20.7555 20.017 20.82 19.8644 20.82 19.6967V16.2367C20.82 16.1131 20.785 15.9978 20.7244 15.8999L21.9404 11.7778ZM19.54 19.0566H13.78V18.0167C13.78 17.3901 14.2935 16.8767 14.92 16.8767H19.54V19.0566ZM13.1329 20.3366C13.1352 20.3367 13.1376 20.3367 13.14 20.3367C13.1424 20.3367 13.1448 20.3367 13.1471 20.3366H19.37V25.2166H14.3154C14.0633 24.2311 13.2747 23.4542 12.28 23.2196V20.3366H13.1329Z" fill="#F92F60"/>
<path d="M27.0267 23.7867C27.0267 27.2826 24.1927 30.1167 20.6967 30.1167C17.2007 30.1167 14.3667 27.2826 14.3667 23.7867C14.3667 20.2907 17.2007 17.4567 20.6967 17.4567C24.1927 17.4567 27.0267 20.2907 27.0267 23.7867Z" fill="#321B41"/>
<path d="M13.4766 28.3367C13.4766 29.2921 12.7021 30.0667 11.7466 30.0667C10.7911 30.0667 10.0166 29.2921 10.0166 28.3367C10.0166 27.3812 10.7911 26.6067 11.7466 26.6067C12.7021 26.6067 13.4766 27.3812 13.4766 28.3367Z" fill="#321B41"/>
<path d="M25.6965 23.7867C25.6965 26.5482 23.458 28.7867 20.6965 28.7867C17.9351 28.7867 15.6965 26.5482 15.6965 23.7867C15.6965 21.0253 17.9351 18.7867 20.6965 18.7867C23.458 18.7867 25.6965 21.0253 25.6965 23.7867Z" fill="#9B9B9B"/>
<path d="M8.8266 26.3167C8.9166 26.3567 9.0166 26.3767 9.1066 26.3767C9.3566 26.3767 9.5966 26.2367 9.6966 25.9967C9.8466 25.6667 9.7066 25.2767 9.3766 25.1267L6.1466 23.6367C5.8166 23.4867 5.4266 23.6267 5.2766 23.9567C5.1266 24.2867 5.2666 24.6767 5.5966 24.8267L8.8266 26.3167Z" fill="#9B9B9B"/>
<path d="M20.6966 27.9267C22.9831 27.9267 24.8366 26.0732 24.8366 23.7867C24.8366 21.5003 22.9831 19.6467 20.6966 19.6467C18.4102 19.6467 16.5566 21.5003 16.5566 23.7867C16.5566 26.0732 18.4102 27.9267 20.6966 27.9267Z" fill="#D3D3D3"/>
<path d="M20.6966 24.9667C21.3483 24.9667 21.8766 24.4384 21.8766 23.7867C21.8766 23.135 21.3483 22.6067 20.6966 22.6067C20.0449 22.6067 19.5166 23.135 19.5166 23.7867C19.5166 24.4384 20.0449 24.9667 20.6966 24.9667Z" fill="#212121"/>
<path d="M16.4066 6.45667L17.0366 8.29667L15.1566 8.95667L14.5366 7.07666L16.4066 6.45667Z" fill="#E4B29A"/>
<path d="M16.3567 8.01665C15.1267 8.30665 14.3667 9.53665 14.6567 10.7667L15.3167 14.8766L20.3267 16.7766L19.1067 9.71665C18.8167 8.48665 17.5767 7.72665 16.3567 8.01665Z" fill="#00A6ED"/>
<path d="M17.5035 9.18267C17.1975 8.82534 16.6597 8.78372 16.3024 9.08971C15.9451 9.39569 15.9035 9.93341 16.2095 10.2907L18.9058 13.4395L18.008 17.1375C17.8189 17.2089 17.2457 17.461 17.3966 17.8467C17.5066 18.1367 17.5366 18.2567 17.5366 18.2567C17.5366 18.2567 17.3166 18.4967 17.5166 18.7067C17.7766 18.9867 18.2066 19.1067 18.2066 19.1067C18.5566 19.2067 19.0366 19.2067 19.2066 19.0267C19.3505 18.8828 19.4392 18.5088 19.4903 18.2932C19.4925 18.2841 19.4946 18.2752 19.4966 18.2667L19.6182 17.6912C19.6326 17.6547 19.6447 17.6168 19.6542 17.5777L20.6642 13.4177C20.7288 13.1516 20.6616 12.8707 20.4835 12.6627L17.5035 9.18267Z" fill="#EEBFAA"/>
<path d="M19.2465 10.9867L17.4065 8.95665C17.0265 8.53665 16.3765 8.50665 15.9465 8.88665C15.5265 9.26665 15.4965 9.91666 15.8765 10.3467L17.7065 12.3667L19.2465 10.9867Z" fill="#3BC6F6"/>
<path d="M14.92 2.98L13.9 3.15C13.05 3.3 12.46 4.12 12.61 4.97L12.68 5.4C12.7 5.54 12.69 5.68 12.64 5.81C12.49 6.21 12.4 6.26 12.42 6.43C12.45 6.71 12.72 6.73 12.84 6.73C12.88 6.73 12.91 6.75 12.92 6.79C13.11 7.75 13.4 8.41 14.56 8.22C15.26 8.1 16.32 7.56 16.5 6.67L16.6 5.5L16.74 4.27C16.6 3.42 15.78 2.83 14.92 2.98Z" fill="#EEBFAA"/>
<path d="M13.3729 4.55031C13.4678 4.54979 13.5532 4.56015 13.6256 4.57451C13.7039 4.59002 13.7678 4.61036 13.8132 4.62733C13.8359 4.63584 13.8542 4.64356 13.8675 4.64953L13.8837 4.65707L13.889 4.65964L13.8909 4.66059L13.8919 4.66114C13.9906 4.71207 14.0296 4.83349 13.9787 4.93216C13.9278 5.03081 13.8065 5.06952 13.7079 5.01865L13.7092 5.01931L13.7029 5.01641C13.6968 5.01367 13.6865 5.00925 13.6724 5.00397C13.6457 4.99399 13.6061 4.98119 13.5568 4.97084L13.3655 4.95251C13.3004 4.95362 13.2293 4.96238 13.1546 4.98345C13.0477 5.0136 12.9367 4.9514 12.9065 4.84453C12.8764 4.73766 12.9386 4.62659 13.0455 4.59645C13.1621 4.56355 13.2728 4.55086 13.3729 4.55031Z" fill="#A56953"/>
<path d="M16.06 2.07997C16.73 2.11997 17.16 2.63997 17.28 3.24997C17.28 3.24997 17.37 3.74997 17.38 4.18997C17.38 4.42997 17.37 4.68997 17.35 4.89997C17.33 5.13997 17.26 5.45997 17.16 5.67997C17.06 5.86997 16.82 6.07997 16.57 6.15997C16.3562 6.2284 15.9522 6.1432 15.8084 5.87312C15.9395 5.74103 16.0103 5.55232 15.99 5.34996C15.95 4.98996 15.63 4.73996 15.28 4.77996L15.2806 4.78491L15.23 4.78997C15.03 4.80997 14.85 4.66997 14.83 4.46997C14.8 4.22997 14.58 4.04997 14.34 4.07997L12.65 4.28997H12.61C12.24 4.29997 11.92 4.02997 11.85 3.65997C11.78 3.23997 12.08 2.84997 12.5 2.78997C12.62 2.77997 12.73 2.69997 12.79 2.58997C12.9 2.36997 13.12 2.20997 13.39 2.17997C13.5 2.15997 13.6 2.16997 13.7 2.19997C13.97 2.27997 14.25 2.23997 14.49 2.09997C14.58 2.04997 14.68 2.00997 14.79 1.99997C14.92 1.97997 15.06 1.99997 15.18 2.04997C15.36 2.11997 15.55 2.12997 15.73 2.09997C15.84 2.07997 15.95 2.06997 16.06 2.07997Z" fill="#FFF9BA"/>
<path d="M13.1667 5.76664C13.1067 5.77664 13.0567 5.72664 13.0367 5.65664V5.64664C12.9867 5.36664 13.2067 5.16664 13.4367 5.12664C13.6667 5.08664 13.9367 5.20664 13.9867 5.48664V5.49664C13.9967 5.56664 13.9567 5.62664 13.8967 5.63664L13.1667 5.76664Z" fill="white"/>
<path d="M13.0766 5.78381C13.0566 5.74381 13.0466 5.70381 13.0366 5.65381C13.0066 5.45381 13.1066 5.26381 13.2666 5.23381C13.4266 5.20381 13.5866 5.35381 13.6166 5.55381C13.6266 5.60381 13.6266 5.64381 13.6166 5.68381L13.0766 5.78381Z" fill="#7D4533"/>
<path d="M13.1766 5.75672C13.1466 5.72672 13.1266 5.68672 13.1166 5.63672C13.0966 5.51672 13.1566 5.41672 13.2466 5.39672C13.3366 5.37672 13.4266 5.46672 13.4466 5.57672C13.4566 5.62672 13.4466 5.67672 13.4366 5.71672L13.1766 5.75672Z" fill="black"/>
<path d="M13.1675 5.54548C13.2002 5.53995 13.2214 5.50456 13.215 5.46644C13.2085 5.42833 13.1768 5.40192 13.1441 5.40746C13.1114 5.41299 13.0902 5.44838 13.0967 5.4865C13.1031 5.52461 13.1348 5.55102 13.1675 5.54548Z" fill="white"/>
<path d="M13.893 6.56431C13.9495 6.57335 13.988 6.6265 13.9789 6.68303C13.9301 6.98839 13.6479 7.19823 13.3402 7.149C13.2837 7.13996 13.2452 7.0868 13.2542 7.03028C13.2633 6.97375 13.3164 6.93526 13.373 6.94431C13.5653 6.97508 13.7431 6.84492 13.7742 6.65028C13.7833 6.59375 13.8364 6.55526 13.893 6.56431Z" fill="#990838"/>
</svg>

<svg xmlns="http://www.w3.org/2000/svg" width="32" height="32" fill="none"><path fill="#9B9B9B" d="m8.336 22.307 1.15-5.59c.21-1.05.77-1.43 1.5-1.48l4.32-.37 4.36-.2s.78 2.98-.37 2.98l-7.1.14c-.18 0-.34.11-.4.27l-2.39 5.69-1.07-1.44Z"/><path fill="#533566" d="m9.447 23.667-.49 1.04c-.05.11-.18.15-.28.1l-3.5-1.63c-.27-.13-.22-.53.08-.58l3.09-.29 1.1 1.36Z"/><path fill="#212121" d="M21.317 10.957a.64.64 0 1 0 0 1.28h3.01a.64.64 0 0 0 0-1.28h-3.01ZM11.657 17.667h7.96v2.47h-8.5v-1.93c0-.3.24-.54.54-.54Z"/><path fill="#9B9B9B" d="M11.64 22.437a.64.64 0 0 1 .64.64v5.24a.64.64 0 1 1-1.28 0v-5.24a.64.64 0 0 1 .64-.64Z"/><path fill="#F92F60" d="M21.94 11.778a.64.64 0 1 0-1.227-.362l-1.234 4.18H14.92a2.424 2.424 0 0 0-2.42 2.42v1.04h-.86a.64.64 0 0 0-.64.64v.242l-2.514 5.42a.64.64 0 1 0 1.161.538L11 22.98v.807c0 .353.287.64.64.64h.01c.8 0 1.456.65 1.47 1.44a.64.64 0 0 0 .64.63h6.25a.64.64 0 0 0 .64-.64V20.13a.638.638 0 0 0 .17-.434v-3.46a.638.638 0 0 0-.096-.337l1.216-4.122Zm-2.4 7.279h-5.76v-1.04c0-.627.514-1.14 1.14-1.14h4.62v2.18Zm-6.407 1.28h6.237v4.88h-5.055a2.764 2.764 0 0 0-2.035-1.997v-2.883h.853Z"/><path fill="#321B41" d="M27.027 23.787a6.33 6.33 0 1 1-12.66 0 6.33 6.33 0 0 1 12.66 0ZM13.477 28.337a1.73 1.73 0 1 1-3.46 0 1.73 1.73 0 0 1 3.46 0Z"/><path fill="#9B9B9B" d="M25.697 23.787a5 5 0 1 1-10 0 5 5 0 0 1 10 0ZM8.827 26.317c.09.04.19.06.28.06.25 0 .49-.14.59-.38.15-.33.01-.72-.32-.87l-3.23-1.49a.655.655 0 1 0-.55 1.19l3.23 1.49Z"/><path fill="#D3D3D3" d="M20.697 27.927a4.14 4.14 0 1 0 0-8.28 4.14 4.14 0 0 0 0 8.28Z"/><path fill="#212121" d="M20.697 24.967a1.18 1.18 0 1 0 0-2.36 1.18 1.18 0 0 0 0 2.36Z"/><path fill="#E4B29A" d="m16.407 6.457.63 1.84-1.88.66-.62-1.88 1.87-.62Z"/><path fill="#00A6ED" d="M16.357 8.017a2.285 2.285 0 0 0-1.7 2.75l.66 4.11 5.01 1.9-1.22-7.06a2.29 2.29 0 0 0-2.75-1.7Z"/><path fill="#EEBFAA" d="M17.503 9.183a.852.852 0 0 0-1.294 1.108l2.697 3.149-.898 3.697c-.19.072-.762.324-.611.71.11.29.14.41.14.41s-.22.24-.02.45c.26.28.69.4.69.4.35.1.83.1 1-.08.143-.144.232-.518.283-.734a4.43 4.43 0 0 0 .007-.026l.121-.576a.867.867 0 0 0 .036-.113l1.01-4.16a.852.852 0 0 0-.18-.755l-2.98-3.48Z"/><path fill="#3BC6F6" d="m19.247 10.987-1.84-2.03c-.38-.42-1.03-.45-1.46-.07-.42.38-.45 1.03-.07 1.46l1.83 2.02 1.54-1.38Z"/><path fill="#EEBFAA" d="m14.92 2.98-1.02.17c-.85.15-1.44.97-1.29 1.82l.07.43c.02.14.01.28-.04.41-.15.4-.24.45-.22.62.03.28.3.3.42.3.04 0 .07.02.08.06.19.96.48 1.62 1.64 1.43.7-.12 1.76-.66 1.94-1.55l.1-1.17.14-1.23c-.14-.85-.96-1.44-1.82-1.29Z"/><path fill="#A56953" d="M13.373 4.55a1.265 1.265 0 0 1 .495.1l.016.007.005.003h.002v.001a.201.201 0 0 1-.183.358h.001l-.006-.003a.807.807 0 0 0-.146-.046l-.191-.017a.827.827 0 0 0-.211.03.201.201 0 1 1-.11-.387c.117-.032.228-.045.328-.046Z"/><path fill="#FFF9BA" d="M16.06 2.08c.67.04 1.1.56 1.22 1.17 0 0 .09.5.1.94 0 .24-.01.5-.03.71-.02.24-.09.56-.19.78-.1.19-.34.4-.59.48-.214.068-.618-.017-.762-.287a.646.646 0 0 0 .182-.523.641.641 0 0 0-.71-.57v.005l-.05.005c-.2.02-.38-.12-.4-.32a.446.446 0 0 0-.49-.39l-1.69.21h-.04a.762.762 0 0 1-.76-.63.76.76 0 0 1 .65-.87c.12-.01.23-.09.29-.2.11-.22.33-.38.6-.41.11-.02.21-.01.31.02.27.08.55.04.79-.1.09-.05.19-.09.3-.1.13-.02.27 0 .39.05.18.07.37.08.55.05.11-.02.22-.03.33-.02Z"/><path fill="#fff" d="M13.167 5.767c-.06.01-.11-.04-.13-.11v-.01c-.05-.28.17-.48.4-.52.23-.04.5.08.55.36v.01c.01.07-.03.13-.09.14l-.73.13Z"/><path fill="#7D4533" d="M13.077 5.784a.495.495 0 0 1-.04-.13c-.03-.2.07-.39.23-.42.16-.03.32.12.35.32.01.05.01.09 0 .13l-.54.1Z"/><path fill="#000" d="M13.177 5.757a.228.228 0 0 1-.06-.12c-.02-.12.04-.22.13-.24.09-.02.18.07.2.18.01.05 0 .1-.01.14l-.26.04Z"/><path fill="#fff" d="M13.168 5.545c.032-.005.053-.04.047-.079-.006-.038-.038-.064-.07-.059-.034.006-.055.041-.048.08.006.038.038.064.07.058Z"/><path fill="#990838" d="M13.893 6.564a.104.104 0 0 1 .086.119.557.557 0 0 1-.639.466.104.104 0 0 1 .033-.205c.192.031.37-.1.401-.294a.104.104 0 0 1 .119-.086Z"/></svg>
